src/assets/img/control-next-white.svg

<svg fill="none" height="800" viewBox="0 0 24 24" width="800" xmlns="http://www.w3.org/2000/svg"><path clip-rule="evenodd" d="m12.0476 13.5826-7.5476 4.3576c-.66667.3849-1.5-.0962-1.5-.866v-9.07268c0-.76981.83333-1.25093 1.5-.86603l7.5476 4.35761v-3.49159c0-.7698.8334-1.25093 1.5-.86603l7.8572 4.53632c.6666.3849.6666 1.3472 0 1.7321l-7.8572 4.5363c-.6666.3849-1.5-.0962-1.5-.866z" fill="#fff" fill-rule="evenodd"/></svg>

<?xml version="1.0" encoding="utf-8"?><!-- Uploaded to: SVG Repo, www.svgrepo.com, Generator: SVG Repo Mixer Tools -->
<svg width="800px" height="800px" viewBox="0 0 24 24" fill="none" xmlns="http://www.w3.org/2000/svg">
<path fill-rule="evenodd" clip-rule="evenodd" d="M12.0476 13.5826L4.5 17.9402C3.83333 18.3251 3 17.844 3 17.0742V8.00152C3 7.23171 3.83333 6.75059 4.5 7.13549L12.0476 11.4931V8.00151C12.0476 7.23171 12.881 6.75058 13.5476 7.13548L21.4048 11.6718C22.0714 12.0567 22.0714 13.019 21.4048 13.4039L13.5476 17.9402C12.881 18.3251 12.0476 17.844 12.0476 17.0742V13.5826Z" fill="#FFFFFF"/>
</svg>
